libs/icons/src/svg/cart-add.svg

<svg width="16" height="16" viewBox="0 0 16 16" fill="none" xmlns="http://www.w3.org/2000/svg">
<g clip-path="url(#clip0_3_3342)">
<path fill-rule="evenodd" clip-rule="evenodd" d="M0.666667 0C0.298477 0 0 0.298477 0 0.666667C0 1.03486 0.298477 1.33333 0.666667 1.33333H2.08299L3.33918 10.7548C3.38334 11.086 3.66587 11.3333 4 11.3333H13.3333C13.6511 11.3333 13.9247 11.109 13.9871 10.7974L14.7693 6.88639C15.5278 6.15843 16 5.13436 16 4C16 1.79086 14.2091 0 12 0C10.018 0 8.37272 1.4415 8.05531 3.33329H3.69478L3.32749 0.578557C3.28332 0.247353 3.0008 0 2.66667 0H0.666667ZM8.0553 4.66662H3.87256L4.58368 10H12.7868L13.225 7.80893C12.8389 7.933 12.4273 8 12 8C10.018 8 8.37266 6.55845 8.0553 4.66662ZM13.7308 6.02874L13.7222 6.03606C13.2575 6.42945 12.6565 6.66667 12 6.66667C10.5272 6.66667 9.33333 5.47276 9.33333 4C9.33333 2.52724 10.5272 1.33333 12 1.33333C13.4728 1.33333 14.6667 2.52724 14.6667 4C14.6667 4.81222 14.3035 5.53963 13.7308 6.02874ZM4.66671 13.3333C4.29852 13.3333 4.00005 13.6318 4.00005 14C4.00005 14.3682 4.29852 14.6667 4.66671 14.6667C5.0349 14.6667 5.33338 14.3682 5.33338 14C5.33338 13.6318 5.0349 13.3333 4.66671 13.3333ZM2.66671 14C2.66671 12.8954 3.56214 12 4.66671 12C5.77128 12 6.66671 12.8954 6.66671 14C6.66671 15.1046 5.77128 16 4.66671 16C3.56214 16 2.66671 15.1046 2.66671 14ZM12.6667 13.3333C12.2985 13.3333 12 13.6318 12 14C12 14.3682 12.2985 14.6667 12.6667 14.6667C13.0349 14.6667 13.3334 14.3682 13.3334 14C13.3334 13.6318 13.0349 13.3333 12.6667 13.3333ZM10.6667 14C10.6667 12.8954 11.5621 12 12.6667 12C13.7713 12 14.6667 12.8954 14.6667 14C14.6667 15.1046 13.7713 16 12.6667 16C11.5621 16 10.6667 15.1046 10.6667 14ZM12 2C12.3681 2 12.6666 2.29848 12.6666 2.66667V3.33329H13.3333C13.7015 3.33329 14 3.63176 14 3.99995C14 4.36814 13.7015 4.66662 13.3333 4.66662H12.6666V5.33333C12.6666 5.70152 12.3681 6 12 6C11.6318 6 11.3333 5.70152 11.3333 5.33333V4.66662H10.6667C10.2985 4.66662 10 4.36814 10 3.99995C10 3.63176 10.2985 3.33329 10.6667 3.33329H11.3333V2.66667C11.3333 2.29848 11.6318 2 12 2Z" fill="#202327"/>
</g>
<defs>
<clipPath id="clip0_3_3342">
<rect width="16" height="16" fill="white"/>
</clipPath>
</defs>
</svg>

<svg xmlns="http://www.w3.org/2000/svg" viewBox="0 0 16 16" class="sageicon"><path fill-rule="evenodd" d="M.667 0a.667.667 0 0 0 0 1.333h1.416l1.256 9.422a.667.667 0 0 0 .661.578h9.333a.667.667 0 0 0 .654-.536l.782-3.91a4 4 0 1 0-6.714-3.553h-4.36L3.327.578A.667.667 0 0 0 2.667 0h-2Zm7.388 4.667H3.873L4.583 10h8.204l.438-2.191a4.001 4.001 0 0 1-5.17-3.142Zm5.676 1.362-.009.007a2.667 2.667 0 1 1 .009-.007Zm-9.064 7.304a.667.667 0 1 0 0 1.334.667.667 0 0 0 0-1.334Zm-2 .667a2 2 0 1 1 4 0 2 2 0 0 1-4 0Zm10-.667a.667.667 0 1 0 0 1.334.667.667 0 0 0 0-1.334Zm-2 .667a2 2 0 1 1 4 0 2 2 0 0 1-4 0ZM12 2c.368 0 .667.298.667.667v.666h.666a.667.667 0 1 1 0 1.334h-.666v.666a.667.667 0 0 1-1.334 0v-.666h-.666a.667.667 0 1 1 0-1.334h.666v-.666c0-.369.299-.667.667-.667Z"/></svg>
